app/img/src/logo/Swiss_new.svg

<svg width="145" height="33" viewBox="0 0 145 33" fill="none" xmlns="http://www.w3.org/2000/svg">
<path d="M106.038 27.0231H100.454V5.90575H106.038V27.0231ZM92.8191 5.90575L89.2253 20.0587L85.0186 5.90575H79.6204L75.4175 20.0587L71.8141 5.90575H66.3572L72.2942 27.0231H78.0582L82.3154 12.5394L86.573 27.0231H92.3351L98.2905 5.90575H92.8191ZM65.8911 21.0527C65.8911 17.0047 63.7049 15.6481 58.9211 14.1159C56.667 13.3936 54.5622 12.8392 54.5622 11.1186C54.5622 9.60779 56.1258 9.10673 57.294 9.10673C58.2854 9.10673 60.1469 9.31325 60.2976 11.553H65.5771C65.4851 7.27712 61.9441 5.41516 57.3875 5.41516C54.5622 5.41516 52.2287 6.20077 50.7581 7.62211C49.7319 8.61566 49.1068 10.0713 49.1068 11.5859C49.1068 15.5168 51.7819 17.0928 54.803 17.9954C58.1982 19.0137 60.444 19.6204 60.444 21.4562C60.444 22.6825 59.4555 23.9039 57.5014 23.9039C55.0186 23.9039 54.1169 22.4483 54.0573 21.0189H48.7153C48.7153 25.8853 52.892 27.664 57.5014 27.664C63.388 27.664 65.8911 24.3736 65.8911 21.0527ZM125.789 21.0527C125.789 16.3947 122.338 15.1651 118.168 13.9422C116.158 13.3598 114.352 12.8397 114.352 11.1186C114.352 9.60779 115.916 9.10673 117.085 9.10673C118.079 9.10673 119.934 9.31325 120.083 11.553H125.367C125.276 7.27712 121.739 5.41516 117.173 5.41516C114.353 5.41516 112.01 6.20077 110.547 7.62211C109.527 8.61566 108.897 10.0713 108.897 11.5859C108.897 15.5168 111.566 17.0928 114.598 17.9954C117.99 19.0137 120.239 19.6204 120.239 21.4562C120.239 22.6825 119.252 23.9039 117.299 23.9039C114.807 23.9039 113.905 22.4483 113.85 21.0189H108.506C108.506 25.8853 112.679 27.664 117.298 27.664C123.176 27.664 125.789 24.3736 125.789 21.0527ZM145 21.0527C145 16.3947 141.534 15.1651 137.367 13.9422C135.352 13.3598 133.558 12.8397 133.558 11.1186C133.558 9.60779 135.113 9.10673 136.282 9.10673C137.269 9.10673 139.132 9.31325 139.284 11.553H144.579C144.487 7.27712 140.933 5.41516 136.38 5.41516C133.558 5.41516 131.216 6.20077 129.743 7.62211C128.724 8.61566 128.098 10.0713 128.098 11.5859C128.098 15.5168 130.767 17.0928 133.791 17.9954C137.186 19.0137 139.434 19.6204 139.434 21.4562C139.434 22.6825 138.447 23.9039 136.495 23.9039C134.007 23.9039 133.106 22.4483 133.047 21.0189H127.701C127.701 25.8853 131.872 27.664 136.495 27.664C142.387 27.664 145 24.3736 145 21.0527Z" fill="black"/>
<path d="M26.9517 -7.26075e-09H45.0525L36.7728 33H7.57824e-08L26.9517 -7.26075e-09Z" fill="black"/>
<path d="M31.1458 19.5433H38.3804V13.4554H31.1458V6.3497H24.9433V13.4554H17.7087V19.5433H24.9399V26.6505H31.1405V19.5433H31.1458Z" fill="black"/>
<path d="M31.1458 19.5433H38.3804V13.4554H31.1458V6.3497H24.9433V13.4554H17.7087V19.5433H24.9399V26.6505H31.1405V19.5433H31.1458Z" fill="white"/>
</svg>

<svg width="145" height="33" fill="none" xmlns="http://www.w3.org/2000/svg"><path d="M106.038 27.023h-5.584V5.906h5.584v21.117zM92.819 5.906l-3.594 14.153L85.02 5.906H79.62l-4.203 14.153-3.603-14.153h-5.457l5.937 21.117h5.764l4.257-14.484 4.258 14.484h5.762l5.956-21.117h-5.472zM65.891 21.053c0-4.048-2.186-5.405-6.97-6.937-2.254-.722-4.359-1.277-4.359-2.997 0-1.511 1.564-2.012 2.732-2.012.991 0 2.853.206 3.004 2.446h5.28c-.093-4.276-3.634-6.138-8.19-6.138-2.826 0-5.16.786-6.63 2.207-1.026.994-1.651 2.45-1.651 3.964 0 3.93 2.675 5.507 5.696 6.41 3.395 1.018 5.641 1.624 5.641 3.46 0 1.227-.989 2.448-2.943 2.448-2.482 0-3.384-1.456-3.444-2.885h-5.342c0 4.866 4.177 6.645 8.786 6.645 5.887 0 8.39-3.29 8.39-6.611zm59.898 0c0-4.658-3.451-5.888-7.621-7.11-2.01-.583-3.816-1.103-3.816-2.824 0-1.511 1.564-2.012 2.733-2.012.994 0 2.849.206 2.998 2.446h5.284c-.091-4.276-3.628-6.138-8.194-6.138-2.82 0-5.163.786-6.626 2.207-1.02.994-1.65 2.45-1.65 3.964 0 3.93 2.669 5.507 5.701 6.41 3.392 1.018 5.641 1.624 5.641 3.46 0 1.227-.987 2.448-2.94 2.448-2.492 0-3.394-1.456-3.449-2.885h-5.344c0 4.866 4.173 6.645 8.792 6.645 5.878 0 8.491-3.29 8.491-6.611zm19.211 0c0-4.658-3.466-5.888-7.633-7.11-2.015-.583-3.809-1.103-3.809-2.824 0-1.511 1.555-2.012 2.724-2.012.987 0 2.85.206 3.002 2.446h5.295c-.092-4.276-3.646-6.138-8.199-6.138-2.822 0-5.164.786-6.637 2.207-1.019.994-1.645 2.45-1.645 3.964 0 3.93 2.669 5.507 5.693 6.41 3.395 1.018 5.643 1.624 5.643 3.46 0 1.227-.987 2.448-2.939 2.448-2.488 0-3.389-1.456-3.448-2.885h-5.346c0 4.866 4.171 6.645 8.794 6.645 5.892 0 8.505-3.29 8.505-6.611zM26.952 0h18.1l-8.28 33H0L26.952 0z" fill="#000"/><path d="M31.146 19.543h7.234v-6.088h-7.234V6.35h-6.203v7.105H17.71v6.088h7.23v7.108h6.201v-7.108h.006z" fill="#000"/><path d="M31.146 19.543h7.234v-6.088h-7.234V6.35h-6.203v7.105H17.71v6.088h7.23v7.108h6.201v-7.108h.006z" fill="#fff"/></svg>
